X: 273
T:Scollys
% Nottingham Music Database
S:Trad, arr Phil Rowe
M:6/8
K:D
A|"D"dfe d2A|"D"dfe d2A|"D"d2A d2f|a6|"G"gfg bag|
"D"fed A2f|"Em"efe dcB|"A7"ABA GFE|"D"dfe d2A|"D"dfe d2A|
"D"d2A d2f|a6|"G"gfg bag|"D"fed A2F|"Em"GAB "A7"ABc|"D"d3 ||
f2g |"D"afd AFA|"D"afd AFA|"D"agf "G"bag|"D"afd AFA|
"A7"gec Ace|"A7"gfe "B7"b2a|"Em"gfe dcB|"A"ABA "A7"GFE|
"D"afd AFA|"D"afd AFA|"D"agf "G"bag|"D"afd AFA|
"G"GFG BAG|"D"FAd fag|"Em"fed "A7"Adc|d3 -d2||<end>
<start>
